static/images/past-sponsors/wyeworks.svg

<svg fill="none" height="61" viewBox="0 0 301 61" width="301" xmlns="http://www.w3.org/2000/svg"><path d="m30.0999 9.26562h7.467l3.062 26.53168 3.8141-26.47807h5.9629l3.9752 26.37087 3.0621-26.42448h7.3596l-5.5869 43.41548h-7.5743l-4.1903-27.4965-4.029 27.4965h-7.6819z" fill="#0b0b0b"/><path d="m73.726 35.4756-8.4877-26.20998h8.3265l4.6736 15.27578 4.2976-15.27578h8.1116l-8.3802 26.20998v17.2055h-8.5414z" fill="#0b0b0b"/><path d="m92.8079 9.26562h18.9631v6.11028h-10.153v11.5239h7.843v6.1639h-7.843v13.6143h10.26v6.0031h-19.0701z" fill="#0b0b0b"/><g fill="#d91e26"><path d="m113.279 9.26538h7.467l3.062 26.53162 3.814-26.47802h5.963l3.975 26.37092 3.062-26.42452h7.36l-5.587 43.41532h-7.575l-4.19-27.4963-4.029 27.4963h-7.682z"/><path d="m163.247 53.2705c-4.619 0-7.914-1.197-9.884-3.5912-1.97-2.4298-2.955-5.9852-2.955-10.6662v-16.187c0-4.681.985-8.2007 2.955-10.559 1.97-2.35842 5.265-3.53761 9.884-3.53761 4.584 0 7.861 1.19706 9.831 3.59111 2.006 2.3584 3.008 5.8602 3.008 10.5055v16.2407c0 4.6452-1.002 8.1827-3.008 10.6125-1.97 2.3942-5.247 3.5912-9.831 3.5912zm0-6.3246c1.504 0 2.507-.5003 3.009-1.5008.537-1.0362.806-2.4477.806-4.2344v-20.5286c0-1.7866-.269-3.1623-.806-4.1271-.502-1.0005-1.505-1.5008-3.009-1.5008s-2.524.5003-3.062 1.5008c-.501.9648-.752 2.3405-.752 4.1271v20.5286c0 1.8223.251 3.2338.752 4.2344.502 1.0005 1.522 1.5008 3.062 1.5008z"/><path d="m180.393 9.26538h11.281c4.691 0 8.219.85762 10.583 2.57282 2.363 1.7151 3.545 4.681 3.545 8.8974 0 2.8229-.394 5.1098-1.182 6.8608-.787 1.7152-2.184 3.0194-4.19 3.9127l6.017 21.1716h-9.079l-4.942-19.6709h-3.223v19.6709h-8.81zm11.442 18.49172c2.077 0 3.528-.5002 4.351-1.5007.86-1.0363 1.29-2.6443 1.29-4.824 0-2.144-.376-3.7162-1.128-4.7167s-2.113-1.5008-4.083-1.5008h-3.062v12.5422z"/><path d="m210.101 9.26538h8.81v18.33102l7.896-18.33102h8.595l-8.165 19.51012 8.811 23.9052h-8.972l-6.715-19.4029-1.45 2.3584v17.0445h-8.81z"/><path d="m248.675 53.2705c-4.012 0-7.019-1.0898-9.025-3.2695-2.005-2.2154-3.098-5.628-3.277-10.2375l7.628-1.2864c.072 2.7515.448 4.7883 1.13 6.1104.716 1.2863 1.772 1.9295 3.167 1.9295 1.039 0 1.793-.3215 2.258-.9649.465-.6787.698-1.5363.698-2.5726 0-1.7152-.394-3.1623-1.182-4.3416-.753-1.2149-1.953-2.5371-3.6-3.9664l-4.511-3.9127c-1.793-1.5008-3.169-3.1087-4.137-4.8239-.932-1.7152-1.397-3.7698-1.397-6.1639 0-3.5376 1.039-6.2533 3.116-8.1472 2.113-1.92952 5.013-2.89431 8.702-2.89431 3.939 0 6.68 1.14345 8.22 3.43031 1.539 2.2512 2.416 5.1277 2.632 8.6295l-7.683 1.1256c-.07-2.2869-.34-3.9663-.805-5.0383-.43-1.1077-1.307-1.6616-2.632-1.6616-.967 0-1.719.3752-2.256 1.1256-.537.7146-.807 1.5722-.807 2.5728 0 1.4293.305 2.6442.914 3.6447.644.9648 1.647 2.0368 3.009 3.216l4.405 3.8591c2.076 1.8225 3.706 3.752 4.888 5.7887 1.181 2.0011 1.772 4.3595 1.772 7.0752 0 2.0725-.465 3.9306-1.396 5.5744-.932 1.6078-2.255 2.8764-3.976 3.8054-1.684.9291-3.635 1.3936-5.855 1.3936z"/></g><path d="m266.691 52.4339c2.324 0 4.209-1.8799 4.209-4.199 0-2.319-1.885-4.199-4.209-4.199s-4.208 1.88-4.208 4.199c0 2.3191 1.884 4.199 4.208 4.199z" fill="#0b0b0b"/></svg>

<svg width="301" height="61" viewBox="0 0 301 61" fill="none" xmlns="http://www.w3.org/2000/svg">
<path d="M30.0999 9.26562H37.5669L40.6289 35.7973L44.443 9.31923H50.4059L54.3811 35.6901L57.4432 9.26562H64.8028L59.2159 52.6811H51.6416L47.4513 25.1846L43.4223 52.6811H35.7404L30.0999 9.26562Z" fill="#0B0B0B"/>
<path d="M73.726 35.4756L65.2383 9.26562H73.5648L78.2384 24.5414L82.536 9.26562H90.6476L82.2674 35.4756V52.6811H73.726V35.4756Z" fill="#0B0B0B"/>
<path d="M92.8079 9.26562H111.771V15.3759H101.618V26.8998H109.461V33.0637H101.618V46.678H111.878V52.6811H92.8079V9.26562Z" fill="#0B0B0B"/>
<path d="M113.279 9.26538H120.746L123.808 35.797L127.622 9.31898H133.585L137.56 35.6899L140.622 9.26538H147.982L142.395 52.6807H134.82L130.63 25.1844L126.601 52.6807H118.919L113.279 9.26538Z" fill="#D91E26"/>
<path d="M163.247 53.2705C158.628 53.2705 155.333 52.0735 153.363 49.6793C151.393 47.2495 150.408 43.6941 150.408 39.0131V22.8261C150.408 18.1451 151.393 14.6254 153.363 12.2671C155.333 9.90868 158.628 8.72949 163.247 8.72949C167.831 8.72949 171.108 9.92655 173.078 12.3206C175.084 14.679 176.086 18.1808 176.086 22.8261V39.0668C176.086 43.712 175.084 47.2495 173.078 49.6793C171.108 52.0735 167.831 53.2705 163.247 53.2705ZM163.247 46.9459C164.751 46.9459 165.754 46.4456 166.256 45.4451C166.793 44.4089 167.062 42.9974 167.062 41.2107V20.6821C167.062 18.8955 166.793 17.5198 166.256 16.555C165.754 15.5545 164.751 15.0542 163.247 15.0542C161.743 15.0542 160.723 15.5545 160.185 16.555C159.684 17.5198 159.433 18.8955 159.433 20.6821V41.2107C159.433 43.033 159.684 44.4445 160.185 45.4451C160.687 46.4456 161.707 46.9459 163.247 46.9459Z" fill="#D91E26"/>
<path d="M180.393 9.26538H191.674C196.365 9.26538 199.893 10.123 202.257 11.8382C204.62 13.5533 205.802 16.5192 205.802 20.7356C205.802 23.5585 205.408 25.8454 204.62 27.5964C203.833 29.3116 202.436 30.6158 200.43 31.5091L206.447 52.6807H197.368L192.426 33.0098H189.203V52.6807H180.393V9.26538ZM191.835 27.7571C193.912 27.7571 195.363 27.2569 196.186 26.2564C197.046 25.2201 197.476 23.6121 197.476 21.4324C197.476 19.2884 197.1 17.7162 196.348 16.7157C195.596 15.7152 194.235 15.2149 192.265 15.2149H189.203V27.7571H191.835Z" fill="#D91E26"/>
<path d="M210.101 9.26538H218.911V27.5964L226.807 9.26538H235.402L227.237 28.7755L236.048 52.6807H227.076L220.361 33.2778L218.911 35.6362V52.6807H210.101V9.26538Z" fill="#D91E26"/>
<path d="M248.675 53.2705C244.663 53.2705 241.656 52.1807 239.65 50.001C237.645 47.7856 236.552 44.373 236.373 39.7635L244.001 38.4771C244.073 41.2286 244.449 43.2654 245.131 44.5875C245.847 45.8738 246.903 46.517 248.298 46.517C249.337 46.517 250.091 46.1955 250.556 45.5521C251.021 44.8734 251.254 44.0158 251.254 42.9795C251.254 41.2643 250.86 39.8172 250.072 38.6379C249.319 37.423 248.119 36.1008 246.472 34.6715L241.961 30.7588C240.168 29.258 238.792 27.6501 237.824 25.9349C236.892 24.2197 236.427 22.1651 236.427 19.771C236.427 16.2334 237.466 13.5177 239.543 11.6238C241.656 9.69428 244.556 8.72949 248.245 8.72949C252.184 8.72949 254.925 9.87294 256.465 12.1598C258.004 14.411 258.881 17.2875 259.097 20.7893L251.414 21.9149C251.344 19.628 251.074 17.9486 250.609 16.8766C250.179 15.7689 249.302 15.215 247.977 15.215C247.01 15.215 246.258 15.5902 245.721 16.3406C245.184 17.0552 244.914 17.9128 244.914 18.9134C244.914 20.3427 245.219 21.5576 245.828 22.5581C246.472 23.5229 247.475 24.5949 248.837 25.7741L253.242 29.6332C255.318 31.4557 256.948 33.3852 258.13 35.4219C259.311 37.423 259.902 39.7814 259.902 42.4971C259.902 44.5696 259.437 46.4277 258.506 48.0715C257.574 49.6793 256.251 50.9479 254.53 51.8769C252.846 52.806 250.895 53.2705 248.675 53.2705Z" fill="#D91E26"/>
<path d="M266.691 52.4339C269.015 52.4339 270.9 50.554 270.9 48.2349C270.9 45.9159 269.015 44.0359 266.691 44.0359C264.367 44.0359 262.483 45.9159 262.483 48.2349C262.483 50.554 264.367 52.4339 266.691 52.4339Z" fill="#0B0B0B"/>
</svg>
